packages/core/src/svgs/tokens/branded/VEX.svg

<svg width="24" height="24" viewBox="0 0 24 24" fill="none" xmlns="http://www.w3.org/2000/svg">
<path d="M7.33141 8.18854C5.55999 5.5257 7.92569 2.95428 9.33136 2C4.70857 2.76 4.4457 6.1257 4.89142 7.71426C3.99999 7.52569 3.77713 5.73142 3.77713 4.85713C1.82285 8.47426 3.70285 10.8114 4.89142 11.5256C4.26999 11.352 3.69176 11.0503 3.19382 10.6399C2.69588 10.2295 2.28924 9.71963 2 9.14283C2 12.3828 4.9657 13.9828 6.4457 14.3828C5.37712 14.3828 4.07427 14.0628 3.55428 13.9028C4.09142 16.1886 7.78284 17.56 9.55429 17.9543C9.25135 17.7885 8.49712 16.9256 8.01141 16.3313C8.51426 16.8513 9.49709 17.4456 10 17.7143C9.84002 17.7143 9.67429 17.9028 9.46855 18.1485C9.10856 18.5713 8.62284 19.1428 7.77712 19.1428C6.70856 19.1428 5.70284 18.3485 5.33142 17.9543C5.77712 19.6171 6.22284 20.3313 7.33141 20.5713C8.22284 20.76 9.18282 19.8571 9.56002 19.3828C9.02283 20.9028 7.55999 20.9656 6.89141 20.8113C7.03427 21.0456 7.59999 21.5256 8.66284 21.5256C9.73135 21.5256 10.4458 19.9371 10.6628 19.1428C10.6542 19.7092 10.5082 20.2651 10.2374 20.7627C9.96669 21.2604 9.57935 21.6849 9.10855 22H10.4458C12.2171 21.6171 12.0743 19.6171 11.7771 18.6685C12.6685 20 12.2913 21.1256 12 21.5256C13.6 20.76 13.2571 19.2971 12.8913 18.6685C13.2457 18.8571 13.48 19.6971 13.5543 20.0971C13.9085 18.9543 13.5543 18.1885 13.3313 17.9543C14.0457 17.76 15.2571 16.6056 15.7771 16.0456C15.3313 16.8041 14.7248 17.4556 14 17.9543C18.0913 17.9543 19.8513 15.2514 20.2228 13.9028C18.6228 14.4743 17.6285 14.4628 17.3313 14.3828C18.5752 14.1395 19.7051 13.4954 20.5481 12.5491C21.3912 11.6028 21.9012 10.4064 22 9.14283C21.7907 9.77163 21.4084 10.3287 20.8969 10.7502C20.3856 11.1716 19.7657 11.4404 19.1085 11.5256C22.1371 9.42857 20.9713 6.21142 20 4.85713C20.1771 6.75999 19.3313 7.71426 18.8913 7.95426C19.6 3.57142 16.2228 2.16 14.4457 2C18.3543 4.85713 17.4057 7.47427 16.4457 8.42854C17.8685 12.4286 15.7028 13.9028 14.4457 14.1428C16.2171 13 16.2171 11.6056 16 11.0456C15.8228 12.5714 14.4457 12.9543 13.7771 12.9543C14.4913 11.24 13.3313 9.38283 12.6685 8.66854C12.84 8.47426 13.3313 8.58854 13.5543 8.66854C13.5543 8.47426 12.9657 8.42854 12.6685 8.42854C13.1015 8.28989 13.5669 8.28989 14 8.42854C13.7171 8.21621 13.3936 8.06449 13.0495 7.98288C12.7053 7.90128 12.348 7.89153 12 7.95426C12.7085 7.75998 13.1828 7.87426 13.3313 7.95426C12.9649 7.63056 12.4887 7.45888 12 7.47427C11.2913 7.47427 10.3714 8.10854 10 8.42854L9.77709 8.18854C9.85135 8.34854 9.90855 8.75998 9.55429 9.14283C9.20002 9.52563 9.10855 10.2514 9.10855 10.5714C9.10855 10.1886 9.55429 10.0971 9.77709 10.0971L9.55429 10.3314C10.8 9.76003 11.2571 10.8914 11.3313 11.5256C11.3313 12.6686 10.5886 13.1086 10.2228 13.1886C8.79998 13 7.99998 11.68 7.77712 11.0456C7.49141 12.6056 8.26284 13.5256 8.91998 13.9371C6.34856 12.5086 6.77141 9.54857 7.33141 8.18854ZM10 9.38283C10 9.22283 10.1771 8.85712 10.8857 8.66854V8.90284L10 9.38283Z" fill="url(#paint0_linear_364_6349)"/>
<path d="M14.737 14.0686L14.6685 14.1429C15.1085 14.3829 16.3085 14.8571 17.5542 14.8571C18.5216 14.8314 19.456 14.4993 20.2227 13.9086C18.6227 14.4801 17.6285 14.4629 17.3313 14.3829C18.197 14.2193 19.0132 13.8577 19.716 13.3263C20.4188 12.795 20.9892 12.1083 21.3827 11.3201L21.937 9.69141L21.9827 9.38287C20.3599 12.8971 17.4685 13.6057 15.7885 13.4857C15.4457 13.7714 15.0742 13.9657 14.737 14.0686Z" fill="url(#paint1_linear_364_6349)"/>
<path d="M15.9028 13.383C18.2228 13.383 20.4914 12.3315 21.8343 10.1315C21.9231 9.80858 21.9786 9.47725 22 9.14298C21.7907 9.77178 21.4084 10.3288 20.897 10.7503C20.3856 11.1718 19.7658 11.4406 19.1086 11.5258C21.8514 9.62871 21.1486 6.80584 20.2743 5.29156C20.6 7.34299 20.1886 10.2344 16.9028 11.1772C16.8643 12.0134 16.5063 12.8028 15.9028 13.383Z" fill="url(#paint2_linear_364_6349)"/>
<path d="M7.02872 11.4457C3.59443 10.5087 3.23443 7.3315 3.58301 5.24579C1.95444 8.64007 3.74873 10.8344 4.88586 11.5257C3.74319 11.2096 2.76673 10.4645 2.16016 9.44572C3.04586 12.5544 6.28014 13.2514 7.94871 13.1944C7.4898 12.7052 7.17188 12.1011 7.02872 11.4457Z" fill="url(#paint3_linear_364_6349)"/>
<path d="M7.97141 13.2172C4.37142 13.3315 2.74285 11.1487 2.2 9.50294C2.126 9.38721 2.0592 9.26694 2 9.14294C2 12.3829 4.9657 13.9829 6.44569 14.3829C5.37712 14.3829 4.07427 14.0629 3.55428 13.9029L3.57713 13.9829C4.27741 14.5133 5.12239 14.8183 5.99999 14.8572C7.59999 14.8572 8.89141 14.3829 9.33135 14.1429C9.33135 14.1429 7.67426 13.1544 8.92569 13.9372C8.5737 13.7457 8.25209 13.5032 7.97141 13.2172Z" fill="url(#paint4_linear_364_6349)"/>
<path d="M9.27994 2.04C7.92561 2.63428 5.99991 3.90285 5.55419 5.81142C5.39194 6.52291 5.43704 7.26601 5.68415 7.95266C5.93127 8.63933 6.37004 9.2407 6.94848 9.68563C6.87249 10.2704 6.89761 10.8638 7.02276 11.44C3.26277 10.3428 3.15991 7.05141 3.73134 4.94855L3.77705 4.85713C3.77705 5.73142 3.99991 7.52569 4.88562 7.71426C4.44562 6.1257 4.71419 2.76 9.33127 2L9.2742 2.04H9.27994Z" fill="url(#paint5_linear_364_6349)"/>
<defs>
<linearGradient id="paint0_linear_364_6349" x1="12" y1="2" x2="12" y2="22" gradientUnits="userSpaceOnUse">
<stop stop-color="#FF680B"/>
<stop offset="0.37" stop-color="#DF0B1B"/>
<stop offset="0.5" stop-color="#F9580E"/>
<stop offset="0.71" stop-color="#E51E18"/>
<stop offset="1" stop-color="#DB001D"/>
</linearGradient>
<linearGradient id="paint1_linear_364_6349" x1="10.4999" y1="15.9039" x2="12.8243" y2="21.5531" gradientUnits="userSpaceOnUse">
<stop stop-color="#F34711"/>
<stop offset="1" stop-color="#FB5C0D"/>
</linearGradient>
<linearGradient id="paint2_linear_364_6349" x1="11.8032" y1="13.2854" x2="11.8032" y2="20.3475" gradientUnits="userSpaceOnUse">
<stop stop-color="#ED3414"/>
<stop offset="1" stop-color="#F9560E"/>
</linearGradient>
<linearGradient id="paint3_linear_364_6349" x1="12.9576" y1="15.9988" x2="10.8936" y2="20.6309" gradientUnits="userSpaceOnUse">
<stop stop-color="#EF3913"/>
<stop offset="1" stop-color="#FA580E"/>
</linearGradient>
<linearGradient id="paint4_linear_364_6349" x1="13.5199" y1="15.3401" x2="10.8695" y2="21.5186" gradientUnits="userSpaceOnUse">
<stop stop-color="#F24311"/>
<stop offset="1" stop-color="#FB5C0D"/>
</linearGradient>
<linearGradient id="paint5_linear_364_6349" x1="6.40619" y1="2" x2="6.40619" y2="11.44" gradientUnits="userSpaceOnUse">
<stop stop-color="#E21519"/>
<stop offset="1" stop-color="#F54A10"/>
</linearGradient>
</defs>
</svg>

<svg xmlns="http://www.w3.org/2000/svg" width="24" height="24" fill="none" viewBox="0 0 24 24">
    <path fill="url(#VEX__a)" d="M7.331 8.189c-1.771-2.663.595-5.235 2-6.189-4.622.76-4.885 4.126-4.44 5.714C4 7.526 3.777 5.731 3.777 4.857c-1.954 3.617-.074 5.954 1.114 6.669A4.63 4.63 0 0 1 2 9.143c0 3.24 2.966 4.84 4.446 5.24-1.069 0-2.372-.32-2.892-.48.537 2.286 4.229 3.657 6 4.051-.303-.166-1.057-1.028-1.543-1.623.503.52 1.486 1.115 1.989 1.383-.16 0-.326.189-.531.434-.36.423-.846.995-1.692.995-1.068 0-2.074-.794-2.446-1.189.446 1.663.892 2.377 2 2.617.892.189 1.852-.714 2.229-1.188-.537 1.52-2 1.583-2.669 1.428.143.235.709.715 1.772.715 1.068 0 1.783-1.589 2-2.383A3.5 3.5 0 0 1 9.109 22h1.337c1.771-.383 1.628-2.383 1.331-3.331.892 1.331.514 2.457.223 2.857 1.6-.766 1.257-2.229.891-2.857.355.188.589 1.028.663 1.428.354-1.143 0-1.908-.223-2.143.715-.194 1.926-1.348 2.446-1.908A6 6 0 0 1 14 17.954c4.091 0 5.851-2.703 6.223-4.051-1.6.571-2.594.56-2.892.48A5.8 5.8 0 0 0 22 9.143a3.53 3.53 0 0 1-2.892 2.383c3.03-2.097 1.863-5.315.892-6.669.177 1.903-.669 2.857-1.109 3.097C19.6 3.571 16.223 2.16 14.446 2c3.908 2.857 2.96 5.474 2 6.429 1.422 4-.743 5.474-2 5.714C16.217 13 16.217 11.606 16 11.046c-.177 1.525-1.554 1.908-2.223 1.908.714-1.714-.446-3.571-1.108-4.285.171-.195.662-.08.885 0 0-.195-.588-.24-.886-.24a2.2 2.2 0 0 1 1.332 0 2.57 2.57 0 0 0-2-.475c.709-.194 1.183-.08 1.331 0A1.92 1.92 0 0 0 12 7.474c-.709 0-1.629.635-2 .955l-.223-.24c.074.16.132.571-.223.954-.354.383-.445 1.108-.445 1.428 0-.382.445-.474.668-.474l-.223.234c1.246-.571 1.703.56 1.777 1.195 0 1.143-.742 1.583-1.108 1.663C8.8 13 8 11.68 7.777 11.046c-.286 1.56.486 2.48 1.143 2.891C6.349 12.51 6.771 9.55 7.331 8.19M10 9.383c0-.16.177-.526.886-.714v.234z"/>
    <path fill="url(#VEX__b)" d="m14.737 14.069-.069.074c.44.24 1.64.714 2.886.714a4.57 4.57 0 0 0 2.669-.948c-1.6.571-2.594.554-2.892.474a5.71 5.71 0 0 0 4.052-3.063l.554-1.629.046-.308c-1.623 3.514-4.515 4.223-6.194 4.103-.343.285-.715.48-1.052.583"/>
    <path fill="url(#VEX__c)" d="M15.903 13.383c2.32 0 4.588-1.051 5.931-3.251q.135-.486.166-.989a3.53 3.53 0 0 1-2.891 2.383c2.742-1.897 2.04-4.72 1.165-6.234.326 2.051-.085 4.942-3.371 5.885a3.27 3.27 0 0 1-1 2.206"/>
    <path fill="url(#VEX__d)" d="M7.029 11.446c-3.435-.937-3.795-4.114-3.446-6.2-1.629 3.394.166 5.588 1.303 6.28a4.6 4.6 0 0 1-2.726-2.08c.886 3.108 4.12 3.805 5.789 3.748a3.7 3.7 0 0 1-.92-1.748"/>
    <path fill="url(#VEX__e)" d="M7.971 13.217c-3.6.114-5.228-2.068-5.771-3.714a3 3 0 0 1-.2-.36c0 3.24 2.966 4.84 4.446 5.24-1.069 0-2.372-.32-2.892-.48l.023.08c.7.53 1.545.835 2.423.874 1.6 0 2.891-.474 3.331-.714 0 0-1.657-.989-.405-.206a4 4 0 0 1-.955-.72"/>
    <path fill="url(#VEX__f)" d="M9.28 2.04C7.926 2.634 6 3.903 5.554 5.811a3.82 3.82 0 0 0 1.394 3.875 5.1 5.1 0 0 0 .075 1.754C3.263 10.343 3.16 7.051 3.73 4.949l.046-.092c0 .874.223 2.669 1.109 2.857C4.446 6.126 4.714 2.76 9.33 2l-.057.04z"/>
    <defs>
        <linearGradient id="VEX__a" x1="12" x2="12" y1="2" y2="22" gradientUnits="userSpaceOnUse">
            <stop stop-color="#FF680B"/>
            <stop offset=".37" stop-color="#DF0B1B"/>
            <stop offset=".5" stop-color="#F9580E"/>
            <stop offset=".71" stop-color="#E51E18"/>
            <stop offset="1" stop-color="#DB001D"/>
        </linearGradient>
        <linearGradient id="VEX__b" x1="10.5" x2="12.824" y1="15.904" y2="21.553" gradientUnits="userSpaceOnUse">
            <stop stop-color="#F34711"/>
            <stop offset="1" stop-color="#FB5C0D"/>
        </linearGradient>
        <linearGradient id="VEX__c" x1="11.803" x2="11.803" y1="13.285" y2="20.348" gradientUnits="userSpaceOnUse">
            <stop stop-color="#ED3414"/>
            <stop offset="1" stop-color="#F9560E"/>
        </linearGradient>
        <linearGradient id="VEX__d" x1="12.958" x2="10.894" y1="15.999" y2="20.631" gradientUnits="userSpaceOnUse">
            <stop stop-color="#EF3913"/>
            <stop offset="1" stop-color="#FA580E"/>
        </linearGradient>
        <linearGradient id="VEX__e" x1="13.52" x2="10.87" y1="15.34" y2="21.519" gradientUnits="userSpaceOnUse">
            <stop stop-color="#F24311"/>
            <stop offset="1" stop-color="#FB5C0D"/>
        </linearGradient>
        <linearGradient id="VEX__f" x1="6.406" x2="6.406" y1="2" y2="11.44" gradientUnits="userSpaceOnUse">
            <stop stop-color="#E21519"/>
            <stop offset="1" stop-color="#F54A10"/>
        </linearGradient>
    </defs>
</svg>
